icon-themes/colibre_svg/cmd/sc_pasteonlyvalue.svg

<svg viewBox="0 0 16 16" xmlns="http://www.w3.org/2000/svg">/&amp;amp;gt;<path d="m2 2c-.554 0-1 .446-1 1v12c0 .554.446 1 1 1h12c.554 0 1-.446 1-1v-12c0-.554-.446-1-1-1h-1v2c0 .554-.446 1-1 1h-8c-.554 0-1-.446-1-1v-2z" fill="#eac282"/><path d="m8 0a2 2 0 0 0 -2 2h-2v1c-.554 0-1 .446-1 1v10c0 .554.446 1 1 1h8c.554 0 1-.446 1-1v-10c0-.554-.446-1-1-1v-1h-2a2 2 0 0 0 -2-2zm0 1a1 1 0 0 1 1 1 1 1 0 0 1 -1 1 1 1 0 0 1 -1-1 1 1 0 0 1 .0058594-.0996094 1 1 0 0 1 .9941406-.9003906z" fill="#808080"/><path d="m4 4v10h8v-10z" fill="#fdf9f3"/><path d="m6.4805826 12h1.2475728v-3.1684206c0-.1383459.00485-.2827068.014563-.4330828l-.8398058.6721804c-.055016.042105-.1100322.067669-.1650486.076692-.055016.00902-.1067959.00902-.1553397 0-.048543-.00902-.092233-.02406-.1310679-.045113-.035599-.02406-.063107-.04812-.082524-.072181l-.3689324-.4691724 1.9368932-1.5609022h1.0631068v4.9999996h1v1h-3.5194174z" fill="#808080"/></svg>

<?xml version="1.0" encoding="UTF-8" standalone="no"?>
<svg xmlns="http://www.w3.org/2000/svg" xmlns:sodipodi="http://sodipodi.sourceforge.net/DTD/sodipodi-0.dtd" xmlns:inkscape="http://www.inkscape.org/namespaces/inkscape" viewBox="0 0 16 16" version="1.1">
 <metadata id="metadata12">
  <rdf:RDF>
   <cc:Work>
    <dc:format>image/svg+xml</dc:format>
    <dc:type rdf:resource="http://purl.org/dc/dcmitype/StillImage"/>
   </cc:Work>
  </rdf:RDF>
 </metadata>
 <defs id="defs10"/>
 <sodipodi:namedview pagecolor="#ffffff" bordercolor="#666666" borderopacity="1" objecttolerance="10" gridtolerance="10" guidetolerance="10" inkscape:pageopacity="0" inkscape:pageshadow="2" inkscape:window-width="2560" inkscape:window-height="1319" id="namedview8" showgrid="true" inkscape:zoom="59" inkscape:cx="1.273959" inkscape:cy="3.8275954" inkscape:window-x="0" inkscape:window-y="30" inkscape:window-maximized="1" inkscape:current-layer="svg6">
  <inkscape:grid type="xygrid" id="grid820"/>
 </sodipodi:namedview>





     /&amp;gt;
  <path d="m2 2c-.554 0-1 .446-1 1v12c0 .554.446 1 1 1h12c.554 0 1-.446 1-1v-12c0-.554-.446-1-1-1h-1v2c0 .554-.446 1-1 1h-8c-.554 0-1-.446-1-1v-2z" fill="#eac282" id="path2"/> <path inkscape:connector-curvature="0" d="M 8,0 A 2,2 0 0 0 6,2 H 4 V 3 C 3.446,3 3,3.446 3,4 v 10 c 0,0.554 0.446,1 1,1 h 8 c 0.554,0 1,-0.446 1,-1 V 4 C 13,3.446 12.554,3 12,3 V 2 H 10 A 2,2 0 0 0 8,0 Z M 8,1 A 1,1 0 0 1 9,2 1,1 0 0 1 8,3 1,1 0 0 1 7,2 1,1 0 0 1 7.0058594,1.9003906 1,1 0 0 1 8,1 Z" id="rect816" opacity="1" stroke-dasharray="none" stroke-opacity="1" fill="#808080" stroke="none" stroke-linejoin="round" fill-opacity="1" stroke-linecap="round" stroke-width="2" stroke-miterlimit="4"/> <path inkscape:connector-curvature="0" d="m 4,4 v 10 h 8 V 4 Z" id="rect818" opacity="1" stroke-dasharray="none" stroke-opacity="1" fill="#fdf9f3" stroke="none" stroke-linejoin="round" fill-opacity="1" stroke-linecap="round" stroke-width="2" stroke-miterlimit="4"/> <path inkscape:connector-curvature="0" d="M 6.4805826,12 H 7.7281554 V 8.8315794 c 0,-0.1383459 0.00485,-0.2827068 0.014563,-0.4330828 L 6.9029126,9.070677 C 6.8478966,9.112782 6.7928804,9.138346 6.737864,9.147369 c -0.055016,0.00902 -0.1067959,0.00902 -0.1553397,0 C 6.5339813,9.138349 6.4902913,9.123309 6.4514564,9.102256 6.4158574,9.078196 6.3883494,9.054136 6.3689324,9.030075 L 6,8.5609026 7.9368932,7.0000004 H 9 V 12 h 1 v 1 H 6.4805826 Z" id="path16" fill="#808080" fill-opacity="1"/></svg>
